packages/core/src/svgs/tokens/branded/NEER.svg

<svg width="24" height="24" viewBox="0 0 24 24" fill="none" xmlns="http://www.w3.org/2000/svg">
<path d="M2.00012 5.2875V13.7125C2.00012 13.8 2.06888 13.8749 2.15638 13.8749H5.59387C5.68762 13.8749 5.75011 13.8 5.75011 13.7125V9.65626C5.75011 9.56876 5.82512 9.49993 5.91262 9.49993H8.71886C8.80636 9.49993 8.87511 9.42497 8.87511 9.3312V5.2875C8.87596 5.26647 8.87253 5.24547 8.86506 5.22579C8.85758 5.20611 8.84621 5.18813 8.83161 5.17296C8.81702 5.15778 8.79951 5.14571 8.78013 5.13747C8.76076 5.12923 8.73992 5.12499 8.71886 5.125H2.15638C2.13532 5.12499 2.11448 5.12923 2.0951 5.13747C2.07572 5.14571 2.05822 5.15778 2.04362 5.17296C2.02903 5.18813 2.01765 5.20611 2.01018 5.22579C2.0027 5.24547 1.99929 5.26647 2.00012 5.2875ZM2.00012 15.2749C2.00012 15.1937 2.06263 15.125 2.15013 15.125H5.60012C5.68137 15.125 5.75011 15.1874 5.75011 15.2749V18.725C5.75011 18.8063 5.68762 18.8749 5.60012 18.8749H2.15013C2.11034 18.8749 2.07219 18.8592 2.04406 18.831C2.01593 18.8029 2.00012 18.7647 2.00012 18.725V15.2749ZM10.1251 18.725V5.2875C10.1251 5.20626 10.1938 5.13126 10.2813 5.13126H19.3189C19.3563 5.13126 19.4001 5.15001 19.4313 5.18126L21.9564 7.69374C21.9813 7.725 22 7.76875 22 7.80626V18.725C22 18.8125 21.9313 18.8749 21.8438 18.8749H18.3938C18.3063 18.8749 18.2501 18.8125 18.2501 18.725V9.65626C18.2501 9.56876 18.1688 9.49993 18.0813 9.49993H14.0626C13.9751 9.49993 13.8751 9.56249 13.8751 9.65626V18.725C13.8751 18.8125 13.8313 18.8749 13.7501 18.8749H10.2813C10.1938 18.8749 10.1251 18.8125 10.1251 18.725Z" fill="url(#paint0_linear_364_1825)"/>
<defs>
<linearGradient id="paint0_linear_364_1825" x1="5.46072" y1="7.14821" x2="14.0674" y2="20.0334" gradientUnits="userSpaceOnUse">
<stop stop-color="#0BD4F9"/>
<stop offset="0.34" stop-color="#335DF7"/>
<stop offset="0.62" stop-color="#5551CB"/>
<stop offset="0.93" stop-color="#702EB6"/>
<stop offset="1" stop-color="#4E2EAD"/>
</linearGradient>
</defs>
</svg>

<svg xmlns="http://www.w3.org/2000/svg" width="24" height="24" fill="none" viewBox="0 0 24 24">
    <path fill="url(#NEER__a)" d="M2 5.288v8.425a.16.16 0 0 0 .156.162h3.438c.094 0 .156-.075.156-.162V9.656a.16.16 0 0 1 .163-.156h2.806c.087 0 .156-.075.156-.169V5.288a.156.156 0 0 0-.156-.163H2.156A.156.156 0 0 0 2 5.287m0 9.987c0-.081.063-.15.15-.15H5.6c.081 0 .15.062.15.15v3.45c0 .081-.062.15-.15.15H2.15a.15.15 0 0 1-.15-.15zm8.125 3.45V5.287a.16.16 0 0 1 .156-.156h9.038c.037 0 .081.019.112.05l2.525 2.513a.2.2 0 0 1 .044.112v10.919c0 .087-.069.15-.156.15h-3.45c-.088 0-.144-.062-.144-.15V9.656c0-.087-.081-.156-.169-.156h-4.018c-.088 0-.188.062-.188.156v9.069c0 .087-.044.15-.125.15h-3.469c-.087 0-.156-.062-.156-.15"/>
    <defs>
        <linearGradient id="NEER__a" x1="5.461" x2="14.067" y1="7.148" y2="20.033" gradientUnits="userSpaceOnUse">
            <stop stop-color="#0BD4F9"/>
            <stop offset=".34" stop-color="#335DF7"/>
            <stop offset=".62" stop-color="#5551CB"/>
            <stop offset=".93" stop-color="#702EB6"/>
            <stop offset="1" stop-color="#4E2EAD"/>
        </linearGradient>
    </defs>
</svg>
